X:1
T:Ay de mí, que el llanto y la tristeza
T:Sebastián Durón (1660-1716)
T:From a manuscript source (no 3-054) in the Música Colonial archive in Guatemala Cathedral
T:Ay de mí, que el llanto y la tristeza
T:Cantada a voz sola, al santísimo, y de pasión
T:Copyright © 
T:Copyright © 
T:Copyright © 
T:Copyright © 
C:Sebastián Durón (1660-1716)
Z:From a manuscript source (no 3-054) in the
Z:Música Colonial archive in Guatemala Cathedral
Z:Copyright ©
%%score ( 1 2 ) { 3 | 4 }
L:1/8
M:4/4
K:F
V:1 treble nm="[Soprano]" snm="S."
V:2 treble 
V:3 treble nm="&quot;Acomp&quot; (Continuo)" snm="Cont."
V:4 bass 
V:1
"^Recit[ado]" z Add d2 z d | ^FFFF GG z G | _EEEE =E2 F^F | G2 z G cc c2 | z c F z/ F/ DD _E2- | %5
w: Mas ay de mí, que\_el|llan- to\_y la tris- te- za, no,|no ab- lan- da mi du- re-|za, cri- ad se- ñor,|en mi pie- dad u- san-|
w: |||||
w: |||||
 E2 D2 z2 z d | BBBB B2 z B | GG _E4 D z/ d/ | =BBBB BBBB | cc z c ^FFGA | B3 B AB G2- | %11
w: * do, un|lim- pio co- ra- zón hu-|mil- de\_y blan- do, y|pa- ra que res- pi- ren mis sen-|ti- dos, dad go- zo\_y a- le-|grí- a a mis o-|
w: ||||||
w: ||||||
 G2 ^F2 !fermata!G4 |:[M:3/4]"^AriaDos veces" z2 z2 d2 | B3 A G2 | A^F F3 A | B3 A G2 | AC D2 d2 | %17
w: * í dos.|Con-|si- ga\_a- fl-|gi- * do, mi\_a-|fec- to ven-|di- * do, la|
w: |Aun-|que soy in-|dig- * no, tu|ros- tro be-|nig- * no, my|
w: ||||||
 B2 _ed c2 | c2 dc B2 | cA A3 B | B6 | z2 z2 AA | BA A2 A2 | BA A2 A2 | F2 BA G2 | G2 AG F2 | %26
w: gra- cia _ que\_el|al- ma\in _ fe-|li- * ce per-|dió,|a- fli-|gi- * do, ven-|di- * do, la|gra- cia _ que\_el|al- ma\_in- * fe-|
w: due- ño _ no|a- par- * tes|de mi co- ra-|zón,|tu ros-|tro _ be- *|nig- * no mi|due- ño * no\_a-|part- es _ de|
w: |||||||||
 GF E3 D | D6 | z4 d2 | B2 _ed c2 | c2 dc B2 | cB A3 G | !fermata!G6 | z6 | z4 d2 | =B2 B2 B2 | %36
w: li- * ce per-|dió,|la|gra- cia _ que\_el|al- ma\_in- * fe-|li- * ce per-|dió.||Pues|nun- ca\_el que|
w: mi _ co- ra-|zón,|mi|due- ño _ no\_a-|par- tes _ de|mi _ co- ra-|zón.||Ni|qui- tes ai-|
w: |||||* * * [|]||||
 c2 c2 cB | A2 A2 A2 | B2 B2 B2 | G2 G2 G2 | _A3 A G2 | G2 F3 _E | _E4 F2 | D2 D2 D2 | _E3 E D2 | %45
w: lle- ga llo- *|ran- do, y|se\_en- tre- ga|con- tri- to\_y\_hu-|mil- de des-|pre- cia my|dios, con-|tri- to\_y hu-|mil- de des-|
w: ra- do tu _|es- pí ri-|tu\_a- ma- do|de\_el al- ma\_a-|fli- gi- *|pi- de per-|dón, del|al- ma\_a- fli-|gi- da que|
w: |||||||||
 D2 D3 C | D6 :|[M:4/4]"^Recit[ado]" z2 z D GGGG | GABc dD D2 | z ddd BBBB | GG G4 F2 | %51
w: pre- cia mi|dios.|Mas ay, que aun- que\_el|do- lor mi\_a- lien- to\_ex- ce- de,|na- die\_el per- dón a- se- gu-|rar- me pue- de,|
w: pi- de per-|dón.|||||
w: ||||||
 z2 AA =BBBB | =BBc_E (E2 D2) | C2 z c ccAA | z2 AA FF F2- | F2 E2 z2 z c | ^FFFF FFFF | %57
w: pues sa- bi- en- do la|cau- sa por- que llo- *|ro, si\_es- tá bo- rra- do,|mi de- li- to\_ig- no-|* ro, y|co- mo te- me- ro- sa- men- te\_es-|
w: ||||||
w: ||||||
 GG z2 z2 GG | _E2 _ee dc B2- | B2 A2 _A2 G2- | G2 ^F2 G4 | G8 |] %62
w: pe- ro, con te-|mor y\_es- pe- ran- za vi-|* vo y mue-||ro.|
w: |||||
w: |||||
V:2
 x8 | x8 | x8 | x8 | x8 | x8 | x8 | x8 | x8 | x8 | x8 | x8 |:[M:3/4] x6 | x6 | x6 | x6 | x6 | x6 | %18
w: ||||||||||||||||||
 x6 | x6 | x6 | x6 | x2 A4 | x6 | x6 | x6 | x6 | x6 | x6 | x6 | x6 | x6 | x6 | x6 | x6 | x6 | x6 | %37
w: |||||||||||||||||||
 x6 | x6 | x6 | x4 GG | x6 | x6 | x6 | x6 | x6 | x6 :|[M:4/4] x8 | x8 | x8 | x8 | x8 | x8 | x8 | %54
w: |||da que||||||||||||||
 x8 | x8 | x8 | x8 | x8 | x8 | x8 | x8 |] %62
w: ||||||||
V:3
 z A dd d2 z d | ^FFFF GG z G | _EEEE =E2 F^F | G2 z G cc c2 | z c F z/ F/ DD _E2- | E2 D2 z2 z d | %6
 BBBB B2 z B | GG _E4 D z/ d/ | =BBBB BBBB | cc z c ^FFGA | B3 B AB G2- | G2 ^F2 !fermata!G4 |: %12
[M:3/4] z6 | z6 | z6 | z6 | z6 | z6 | z6 | z6 | z6 | z6 | z6 | z6 | z6 | z6 | z6 | z6 | z6 | z6 | %30
 z6 | z6 | z6 | z6 | z6 | z6 | z6 | z6 | z6 | z6 | z6 | z6 | z6 | z6 | z6 | z6 | z6 :| %47
[M:4/4] z2 z D GGGG | GABc dD D2 | z d dd BBBB | GG G4 F2 | z2 AA =BBBB | =BBc_E (E2 D2) | %53
 C2 z c ccAA | z2 AA FF F2- | F2 E2 z2 z c | ^FFFF FFFF | GG z2 z2 GG | _E2 _ee dc B2- | %59
 B2 A2 _A2 G2- | G2 ^F2 G4 | G8 |] %62
V:4
 D,8 | D,4 =B,,4 | C,4"^56" A,,4 | G,,4"^6" E,,4 | F,,4 B,,2 _E,2 | F,2 B,,2 ^F,,4 | %6
w: |||||? * *|
 G,,4"^6" D,,4 | _E,,4"^7" F,,2 B,,2 | G,,2 F,,2"^4" F,,4 | _E,,4 D,2 C,2 | B,,4 C,4 | %11
w: |||||
"^43" D,4 !fermata!G,,4 |:[M:3/4] G,4 ^F,2 | G,3 !courtesy!^F, _E,2 |"^6" C,2 D,4 | G,4 G,2- | %16
w: |||||
 G,2 ^F,4 | G,2 _E,4 | F,2 D,4 | _E,2 F,4 | B,,3 A,, G,,2 | A,,2 ^F,,4 | G,,4 ^F,,2 | %23
w: |||||||
 G,,2 ^F,,2 A,,2 | B,,4 B,,2 | C,2 A,,2 B,,2 | G,,2 A,,4 | B,,3 A,, G,,2 | A,,2 ^F,,4 | %29
w: ||||||
 G,,2 _E,,4 | F,,2 D,,2 _E,,2 | C,,2 D,,4 | !fermata!G,,4 _E,2 | C,2 D,4 | ^F,,2 F,,2 F,,2 | %35
w: ||||||
 G,,2 G,,2 G,2 | E,2 E,2 E,2 | F,2 F,2 F,E, | D,2 D,2 D,2 | E,2 E,2 E,2 | F,4 G,2 | _A,2 B,4 | %42
w: |||||||
 _E,4 A,,2 | =B,,2 B,,2 B,,2 | C,4 D,2 | _E,4 E,2 | D,6 :|[M:4/4] G,,8 | _E,,4 D,,4 | ^F,,4 G,,4 | %50
w: ||||||||
 _E,4 D,4 | D,8 | D,2 C,2 G,4 | C,4 F,,4 | F,,8 | C,8 | D,8 | =B,,8 | C,4 D,4 | %59
w: |||||||||
 !courtesy!_E,2 F,2 D,2 E,2 | C,2 D,2 =B,,2 C,2 | G,,8 |] %62
w: |||

